X: 982
T: Miss Monroe's Jig
T: Port Ingean Ui Munroe
R:double jig
C:"collected by J.O'Neill"
S:982 O'Neill's Music of Ireland
B:O'Neill's 982
Z:Transcribed by Robert Thorpe (thorpe@skep.com)
Z:ABCMUS 1.0
M:6/8
K:G
D|G2 G AGA|Bcd efg|GFG AGA|BGE E2 D|
|G2 G AGA|Bcd efg|dcB AGA|BGG G2:|
f|gfg efg|fdd def|gfg aga|bge e2 f|
|gfg aga|bge efg|dcB AGA|BGG G2:|


